assets/logos/google-meu-negocio.svg

<svg width="80" height="80" viewBox="0 0 80 80" fill="none" xmlns="http://www.w3.org/2000/svg">
<path d="M13.4399 25.7505H64.9976C66.2211 25.7505 67.2187 26.7481 67.2187 27.9717V65.4117C67.2187 66.6352 66.2211 67.6328 64.9976 67.6328H13.4399C12.2164 67.6328 11.2188 66.6352 11.2188 65.4117V27.9717C11.2188 26.7481 12.2164 25.7505 13.4399 25.7505Z" fill="#4989F5"/>
<path d="M64.3578 25.4305H14.0237C12.4613 25.4305 11.2566 37.4964 11.2566 39.0588L38.8142 67.6141H64.3578C65.9201 67.6141 67.1813 66.3341 67.2001 64.7717V28.2729C67.1813 26.7105 65.9201 25.4494 64.3578 25.4305Z" fill="url(#paint0_linear_18008_2690)"/>
<path d="M63.9999 54.4187C63.9623 54.0422 63.9247 53.6846 63.8494 53.2516H55.1341C55.1341 54.4751 55.1341 55.8116 55.1341 57.0163H60.1788C59.9529 58.1646 59.2941 59.181 58.3341 59.8398V59.821C57.7129 60.2351 57.0164 60.4987 56.2823 60.6116C55.5482 60.7434 54.7952 60.7434 54.0611 60.5928C53.327 60.4422 52.6117 60.141 51.9905 59.6893C51.0682 59.0493 50.3717 58.1457 49.9576 57.0916C49.9199 57.0163 49.9011 56.9222 49.8635 56.8469C49.4682 55.6798 49.4682 54.4187 49.8635 53.2516C50.1458 52.4234 50.5976 51.6893 51.1999 51.0681C52.6117 49.5998 54.7388 49.054 56.6964 49.6375C57.4494 49.8634 58.127 50.2775 58.6917 50.8234L60.4047 49.1104C60.7058 48.8093 61.0258 48.5081 61.3082 48.2069C60.4423 47.3975 59.4258 46.7763 58.3152 46.3622C56.3011 45.6281 54.0988 45.6093 52.0658 46.3057C51.9905 46.3246 51.9341 46.3622 51.8588 46.381C49.6752 47.2093 47.8682 48.8093 46.8141 50.8987C46.4376 51.6328 46.1741 52.4234 46.0047 53.2328C45.0447 58.0328 47.9623 62.7575 52.687 64.0187C54.2305 64.4328 55.8682 64.414 57.4305 64.0751C58.8423 63.7551 60.1599 63.0775 61.2329 62.0987C62.3623 61.0634 63.1529 59.6893 63.5858 58.2398C63.9811 56.9975 64.1129 55.6987 63.9999 54.4187Z" fill="white"/>
<path d="M24 32.7717H40V11.7646H26.3906L24 32.7717Z" fill="#3C4BA6"/>
<path d="M56 32.7717H40V11.7646H53.6094L56 32.7717ZM67.2188 15.7552L67.2376 15.8305C67.2376 15.7929 67.2188 15.7741 67.2188 15.7552Z" fill="#7BABF7"/>
<path d="M67.2376 15.8117L67.2188 15.7364C66.7106 13.4211 64.6588 11.7646 62.2682 11.7646H53.5906L55.9812 32.7717H72L67.2376 15.8117Z" fill="#3F51B5"/>
<path d="M12.7624 15.8117L12.7812 15.7364C13.2894 13.4211 15.36 11.7646 17.7318 11.7646H26.4094L24 32.7717H8L12.7624 15.8117Z" fill="#7BABF7"/>
<path fill-rule="evenodd" clip-rule="evenodd" d="M24.0376 32.7529C24.0376 37.1765 20.4611 40.7529 16.0376 40.7529C11.6141 40.7529 8.0376 37.1765 8.0376 32.7529H24.0376Z" fill="#709BE0"/>
<path fill-rule="evenodd" clip-rule="evenodd" d="M40.0188 32.7529C40.0188 37.1765 36.4423 40.7529 32.0188 40.7529C27.5953 40.7529 24.0188 37.1765 24.0188 32.7529H40.0188Z" fill="#3C4BA6"/>
<path fill-rule="evenodd" clip-rule="evenodd" d="M56.0188 32.7529C56.0188 37.1765 52.4423 40.7529 48.0188 40.7529C43.5953 40.7529 40.0188 37.1765 40.0188 32.7529H56.0188Z" fill="#709BE0"/>
<path fill-rule="evenodd" clip-rule="evenodd" d="M72 32.7529C72 37.1765 68.4235 40.7529 64 40.7529C59.5765 40.7529 56 37.1765 56 32.7529H72Z" fill="#3C4BA6"/>
<defs>
<linearGradient id="paint0_linear_18008_2690" x1="10.8511" y1="46.259" x2="67.2005" y2="46.259" gradientUnits="userSpaceOnUse">
<stop offset="0.03" stop-color="#4079D8"/>
<stop offset="1" stop-color="#4989F5"/>
</linearGradient>
</defs>
</svg>

<svg xmlns="http://www.w3.org/2000/svg" width="80" height="80" fill="none" viewBox="0 0 80 80"><path fill="#4989f5" d="M13.44 25.75h51.558c1.223 0 2.22.998 2.22 2.222v37.44a2.225 2.225 0 0 1-2.22 2.22H13.44a2.225 2.225 0 0 1-2.221-2.22v-37.44c0-1.224.997-2.222 2.22-2.222"/><path fill="url(#a)" d="M64.358 25.43H14.024c-1.563 0-2.767 12.066-2.767 13.629l27.557 28.555h25.544c1.562 0 2.823-1.28 2.842-2.842v-36.5a2.877 2.877 0 0 0-2.842-2.841"/><path fill="#fff" d="M64 54.419a15 15 0 0 0-.15-1.167h-8.716v3.764h5.045a4.46 4.46 0 0 1-1.845 2.824v-.019a5.1 5.1 0 0 1-2.052.79 5.9 5.9 0 0 1-2.22-.018 5.4 5.4 0 0 1-2.072-.904 5.66 5.66 0 0 1-2.032-2.597c-.038-.076-.057-.17-.094-.245a5.6 5.6 0 0 1 0-3.595 5.8 5.8 0 0 1 1.336-2.184 5.46 5.46 0 0 1 5.496-1.43c.753.225 1.431.64 1.996 1.185l1.713-1.713c.3-.3.62-.602.903-.903a9 9 0 0 0-2.993-1.845 9.37 9.37 0 0 0-6.25-.056c-.075.019-.13.056-.206.075a9.35 9.35 0 0 0-5.045 4.518 9.3 9.3 0 0 0-.81 2.334c-.96 4.8 1.958 9.525 6.683 10.786 1.544.414 3.181.395 4.744.056a8.4 8.4 0 0 0 3.802-1.976c1.13-1.036 1.92-2.41 2.353-3.86A9.8 9.8 0 0 0 64 54.42"/><path fill="#3c4ba6" d="M24 32.772h16V11.765H26.39z"/><path fill="#7babf7" d="M56 32.772H40V11.765h13.61zm11.219-17.017.019.075c0-.037-.02-.056-.02-.075"/><path fill="#3f51b5" d="m67.238 15.812-.02-.076a5.06 5.06 0 0 0-4.95-3.971h-8.677l2.39 21.007H72z"/><path fill="#7babf7" d="m12.762 15.812.02-.076a5.075 5.075 0 0 1 4.95-3.971h8.677L24 32.772H8z"/><path fill="#709be0" fill-rule="evenodd" d="M24.038 32.753c0 4.423-3.577 8-8 8-4.424 0-8-3.577-8-8z" clip-rule="evenodd"/><path fill="#3c4ba6" fill-rule="evenodd" d="M40.019 32.753c0 4.423-3.577 8-8 8-4.424 0-8-3.577-8-8z" clip-rule="evenodd"/><path fill="#709be0" fill-rule="evenodd" d="M56.019 32.753c0 4.423-3.577 8-8 8-4.424 0-8-3.577-8-8z" clip-rule="evenodd"/><path fill="#3c4ba6" fill-rule="evenodd" d="M72 32.753c0 4.423-3.576 8-8 8s-8-3.577-8-8z" clip-rule="evenodd"/><defs><linearGradient id="a" x1="10.851" x2="67.201" y1="46.259" y2="46.259" gradientUnits="userSpaceOnUse"><stop offset=".03" stop-color="#4079d8"/><stop offset="1" stop-color="#4989f5"/></linearGradient></defs></svg>
